packages/foundations/assets/icons/functional/images/business & payment/shopping_basket_20.svg

<svg width="20" height="20" viewBox="0 0 20 20" fill="none" xmlns="http://www.w3.org/2000/svg">
<g clip-path="url(#clip0_184_115)">
<path fill-rule="evenodd" clip-rule="evenodd" d="M9.96808 3C12.3381 3 13.9991 4.745 13.9991 7H16.9921C17.6151 7 18.1041 7.573 17.9801 8.2L16.4211 16.186C16.3271 16.656 15.8911 17 15.4231 17H4.57508C4.34482 16.9964 4.12285 16.9135 3.94667 16.7652C3.77049 16.6168 3.65089 16.4123 3.60808 16.186L2.01908 8.199C1.99079 8.05334 1.99504 7.90322 2.03153 7.75939C2.06802 7.61555 2.13584 7.48156 2.23015 7.367C2.32445 7.25244 2.44291 7.16013 2.57705 7.09669C2.71119 7.03324 2.8577 7.00023 3.00608 7H5.99908C5.99908 4.776 7.62908 3 9.96808 3ZM15.7661 9H4.23208L5.41608 15H14.6131L15.7661 9ZM9.99908 5C8.75208 5 8.00908 5.81 8.00908 7H11.9991C11.9991 5.841 11.2151 5 9.99908 5Z" fill="#1A1C1F"/>
</g>
<defs>
<clipPath id="clip0_184_115">
<rect width="20" height="20" fill="white"/>
</clipPath>
</defs>
</svg>

<svg xmlns="http://www.w3.org/2000/svg" width="20" height="20" fill="none"><g clip-path="url(#a)"><path fill="#1A1C1F" fill-rule="evenodd" d="M9.968 3C12.338 3 14 4.745 14 7h2.993c.623 0 1.112.573.988 1.2l-1.559 7.986c-.094.47-.53.814-.998.814H4.575a1 1 0 0 1-.967-.814L2.02 8.199A1.007 1.007 0 0 1 3.006 7H6c0-2.224 1.63-4 3.97-4m5.798 6H4.232l1.184 6h9.197zM10 5c-1.247 0-1.99.81-1.99 2H12c0-1.159-.784-2-2-2" clip-rule="evenodd"/></g><defs><clipPath id="a"><path fill="#fff" d="M0 0h20v20H0z"/></clipPath></defs></svg>
